example/public/room.3dl
#Created by: Adobe Photoshop Export Color Lookup Plugin
#Description: office_lut.psd
0 33 66 99 132 165 198 231 264 297 330 363 396 429 462 495 528 561 594 627 660 693 726 759 792 825 858 891 924 957 990 1023
0 0 0
0 0 149
0 0 293
0 0 432
0 0 564
0 0 690
0 0 815
0 0 940
0 0 1069
0 0 1206
0 0 1352
0 0 1506
0 0 1666
0 0 1829
0 0 1992
0 0 2152
0 0 2306
0 0 2449
0 0 2585
0 0 2713
0 0 2836
0 0 2956
0 0 3075
0 0 3196
0 0 3321
0 0 3453
0 0 3592
0 0 3730
0 0 3854
0 0 3956
0 0 4045
0 0 4095
0 146 0
0 146 146
0 146 291
0 146 431
0 146 563
0 146 690
0 146 814
0 146 939
0 146 1068
0 146 1205
0 146 1352
0 146 1506
0 146 1666
0 146 1829
0 146 1992
0 146 2152
0 146 2305
0 146 2449
0 146 2584
0 146 2713
0 146 2836
0 146 2956
0 146 3075
0 146 3196
0 146 3321
0 146 3453
0 146 3592
0 146 3730
0 146 3853
0 146 3956
0 146 4045
0 146 4095
0 288 0
0 288 142
0 288 288
0 288 429
0 288 562
0 288 689
0 288 813
0 288 938
0 288 1068
0 288 1205
0 288 1351
0 288 1505
0 288 1665
0 288 1829
0 288 1991
0 288 2152
0 288 2305
0 288 2449
0 288 2584
0 288 2712
0 288 2836
0 288 2956
0 288 3075
0 288 3196
0 288 3321
0 288 3453
0 288 3592
0 288 3730
0 288 3853
0 288 3956
0 288 4045
0 288 4095
0 426 0
0 426 137
0 426 285
0 426 426
0 426 560
0 426 687
0 426 812
0 426 938
0 426 1067
0 426 1204
0 426 1350
0 426 1505
0 426 1665
0 426 1828
0 426 1991
0 426 2151
0 426 2305
0 426 2448
0 426 2584
0 426 2712
0 426 2835
0 426 2955
0 426 3075
0 426 3195
0 426 3321
0 426 3453
0 426 3591
0 426 3729
0 426 3853
0 426 3956
0 426 4045
0 426 4095
0 558 0
0 558 130
0 558 280
0 558 423
0 558 558
0 558 685
0 558 811
0 558 936
0 558 1066
0 558 1203
0 558 1349
0 558 1504
0 558 1664
0 558 1827
0 558 1990
0 558 2150
0 558 2304
0 558 2448
0 558 2583
0 558 2712
0 558 2835
0 558 2955
0 558 3074
0 558 3195
0 558 3320
0 558 3452
0 558 3591
0 558 3729
0 558 3853
0 558 3956
0 558 4045
0 558 4095
0 683 0
0 683 122
0 683 274
0 683 419
0 683 554
0 683 683
0 683 809
0 683 935
0 683 1064
0 683 1201
0 683 1348
0 683 1503
0 683 1663
0 683 1826
0 683 1989
0 683 2150
0 683 2303
0 683 2447
0 683 2583
0 683 2711
0 683 2834
0 683 2955
0 683 3074
0 683 3195
0 683 3320
0 683 3452
0 683 3591
0 683 3729
0 683 3853
0 683 3956
0 683 4044
0 683 4095
0 806 0
0 806 111
0 806 266
0 806 414
0 806 551
0 806 680
0 806 806
0 806 933
0 806 1063
0 806 1200
0 806 1346
0 806 1501
0 806 1661
0 806 1825
0 806 1988
0 806 2149
0 806 2303
0 806 2447
0 806 2582
0 806 2711
0 806 2834
0 806 2954
0 806 3073
0 806 3194
0 806 3320
0 806 3451
0 806 3590
0 806 3729
0 806 3852
0 806 3956
0 806 4044
0 806 4095
0 930 0
0 930 98
0 930 256
0 930 407
0 930 546
0 930 677
0 930 804
0 930 930
0 930 1060
0 930 1198
0 930 1344
0 930 1499
0 930 1660
0 930 1823
0 930 1987
0 930 2147
0 930 2301
0 930 2446
0 930 2581
0 930 2710
0 930 2833
0 930 2954
0 930 3073
0 930 3194
0 930 3319
0 930 3451
0 930 3590
0 930 3728
0 930 3852
0 930 3955
0 930 4044
0 930 4095
0 1058 0
0 1058 83
0 1058 244
0 1058 400
0 1058 541
0 1058 672
0 1058 800
0 1058 927
0 1058 1058
0 1058 1195
0 1058 1342
0 1058 1497
0 1058 1658
0 1058 1821
0 1058 1985
0 1058 2146
0 1058 2300
0 1058 2445
0 1058 2580
0 1058 2709
0 1058 2833
0 1058 2953
0 1058 3072
0 1058 3193
0 1058 3318
0 1058 3450
0 1058 3589
0 1058 3727
0 1058 3852
0 1058 3955
0 1058 4044
0 1058 4095
0 1193 0
0 1193 65
0 1193 229
0 1193 390
0 1193 534
0 1193 668
0 1193 796
0 1193 924
0 1193 1055
0 1193 1193
0 1193 1340
0 1193 1495
0 1193 1655
0 1193 1819
0 1193 1983
0 1193 2144
0 1193 2299
0 1193 2443
0 1193 2579
0 1193 2708
0 1193 2832
0 1193 2952
0 1193 3071
0 1193 3193
0 1193 3318
0 1193 3450
0 1193 3588
0 1193 3727
0 1193 3851
0 1193 3954
0 1193 4043
0 1193 4095
0 1337 0
0 1337 44
0 1337 212
0 1337 380
0 1337 527
0 1337 662
0 1337 792
0 1337 920
0 1337 1051
0 1337 1189
0 1337 1337
0 1337 1492
0 1337 1653
0 1337 1817
0 1337 1981
0 1337 2142
0 1337 2297
0 1337 2442
0 1337 2578
0 1337 2707
0 1337 2831
0 1337 2951
0 1337 3071
0 1337 3192
0 1337 3317
0 1337 3449
0 1337 3588
0 1337 3726
0 1337 3850
0 1337 3954
0 1337 4043
0 1337 4095
0 1489 0
0 1489 21
0 1489 192
0 1489 367
0 1489 518
0 1489 656
0 1489 787
0 1489 916
0 1489 1048
0 1489 1186
0 1489 1333
0 1489 1489
0 1489 1650
0 1489 1814
0 1489 1979
0 1489 2140
0 1489 2295
0 1489 2440
0 1489 2577
0 1489 2706
0 1489 2830
0 1489 2950
0 1489 3070
0 1489 3191
0 1489 3316
0 1489 3448
0 1489 3587
0 1489 3725
0 1489 3850
0 1489 3953
0 1489 4043
0 1489 4095
0 1647 0
0 1647 0
0 1647 167
0 1647 352
0 1647 509
0 1647 648
0 1647 781
0 1647 911
0 1647 1043
0 1647 1182
0 1647 1330
0 1647 1486
0 1647 1647
0 1647 1812
0 1647 1976
0 1647 2138
0 1647 2293
0 1647 2439
0 1647 2575
0 1647 2704
0 1647 2828
0 1647 2949
0 1647 3069
0 1647 3190
0 1647 3315
0 1647 3447
0 1647 3586
0 1647 3724
0 1647 3849
0 1647 3953
0 1647 4042
0 1647 4095
0 1808 0
0 1808 0
0 1808 138
0 1808 336
0 1808 498
0 1808 640
0 1808 775
0 1808 906
0 1808 1038
0 1808 1177
0 1808 1326
0 1808 1482
0 1808 1643
0 1808 1808
0 1808 1973
0 1808 2135
0 1808 2291
0 1808 2437
0 1808 2573
0 1808 2703
0 1808 2827
0 1808 2948
0 1808 3067
0 1808 3189
0 1808 3314
0 1808 3446
0 1808 3585
0 1808 3723
0 1808 3848
0 1808 3952
0 1808 4041
0 1808 4095
0 1970 0
0 1970 0
0 1970 108
0 1970 317
0 1970 485
0 1970 631
0 1970 767
0 1970 900
0 1970 1033
0 1970 1173
0 1970 1321
0 1970 1477
0 1970 1639
0 1970 1805
0 1970 1970
0 1970 2132
0 1970 2288
0 1970 2435
0 1970 2571
0 1970 2701
0 1970 2825
0 1970 2946
0 1970 3066
0 1970 3187
0 1970 3312
0 1970 3444
0 1970 3583
0 1970 3722
0 1970 3847
0 1970 3951
0 1970 4041
0 1970 4095
0 2129 0
0 2129 0
0 2129 74
0 2129 294
0 2129 471
0 2129 621
0 2129 759
0 2129 893
0 2129 1027
0 2129 1167
0 2129 1316
0 2129 1473
0 2129 1635
0 2129 1801
0 2129 1967
0 2129 2129
0 2129 2286
0 2129 2432
0 2129 2569
0 2129 2699
0 2129 2824
0 2129 2945
0 2129 3065
0 2129 3186
0 2129 3311
0 2129 3443
0 2129 3582
0 2129 3721
0 2129 3846
0 2129 3951
0 2129 4040
0 2129 4095
0 2283 0
0 2283 0
0 2283 36
0 2283 268
0 2283 455
0 2283 610
0 2283 751
0 2283 886
0 2283 1021
0 2283 1161
0 2283 1311
0 2283 1468
0 2283 1630
0 2283 1796
0 2283 1963
0 2283 2126
0 2283 2283
0 2283 2429
0 2283 2567
0 2283 2697
0 2283 2822
0 2283 2943
0 2283 3063
0 2283 3184
0 2283 3310
0 2283 3441
0 2283 3580
0 2283 3719
0 2283 3845
0 2283 3950
0 2283 4039
0 2283 4095
0 2427 0
0 2427 0
0 2427 0
0 2427 237
0 2427 437
0 2427 598
0 2427 741
0 2427 878
0 2427 1014
0 2427 1155
0 2427 1305
0 2427 1462
0 2427 1625
0 2427 1792
0 2427 1958
0 2427 2122
0 2427 2279
0 2427 2427
0 2427 2564
0 2427 2695
0 2427 2820
0 2427 2941
0 2427 3061
0 2427 3183
0 2427 3308
0 2427 3440
0 2427 3579
0 2427 3718
0 2427 3844
0 2427 3949
0 2427 4038
0 2427 4095
0 2562 0
0 2562 0
0 2562 0
0 2562 200
0 2562 417
0 2562 584
0 2562 731
0 2562 869
0 2562 1007
0 2562 1148
0 2562 1298
0 2562 1456
0 2562 1620
0 2562 1787
0 2562 1954
0 2562 2118
0 2562 2276
0 2562 2424
0 2562 2562
0 2562 2693
0 2562 2818
0 2562 2939
0 2562 3059
0 2562 3181
0 2562 3306
0 2562 3438
0 2562 3577
0 2562 3716
0 2562 3843
0 2562 3948
0 2562 4037
0 2562 4095
0 2690 0
0 2690 0
0 2690 0
0 2690 156
0 2690 393
0 2690 569
0 2690 719
0 2690 860
0 2690 999
0 2690 1141
0 2690 1291
0 2690 1450
0 2690 1614
0 2690 1781
0 2690 1949
0 2690 2114
0 2690 2272
0 2690 2420
0 2690 2559
0 2690 2690
0 2690 2815
0 2690 2937
0 2690 3057
0 2690 3179
0 2690 3304
0 2690 3436
0 2690 3575
0 2690 3715
0 2690 3841
0 2690 3947
0 2690 4037
0 2690 4095
0 2813 0
0 2813 0
0 2813 0
0 2813 106
0 2813 367
0 2813 552
0 2813 707
0 2813 850
0 2813 990
0 2813 1133
0 2813 1284
0 2813 1443
0 2813 1608
0 2813 1776
0 2813 1944
0 2813 2109
0 2813 2268
0 2813 2417
0 2813 2556
0 2813 2687
0 2813 2813
0 2813 2935
0 2813 3055
0 2813 3177
0 2813 3302
0 2813 3434
0 2813 3573
0 2813 3713
0 2813 3840
0 2813 3945
0 2813 4036
0 2813 4095
0 2932 0
0 2932 0
0 2932 0
0 2932 54
0 2932 336
0 2932 533
0 2932 693
0 2932 839
0 2932 981
0 2932 1125
0 2932 1276
0 2932 1436
0 2932 1601
0 2932 1769
0 2932 1938
0 2932 2104
0 2932 2263
0 2932 2413
0 2932 2553
0 2932 2684
0 2932 2810
0 2932 2932
0 2932 3053
0 2932 3175
0 2932 3300
0 2932 3432
0 2932 3571
0 2932 3711
0 2932 3838
0 2932 3944
0 2932 4035
0 2932 4095
0 3051 0
0 3051 0
0 3051 0
0 3051 0
0 3051 301
0 3051 512
0 3051 679
0 3051 827
0 3051 971
0 3051 1116
0 3051 1268
0 3051 1428
0 3051 1594
0 3051 1762
0 3051 1932
0 3051 2098
0 3051 2259
0 3051 2409
0 3051 2549
0 3051 2681
0 3051 2807
0 3051 2930
0 3051 3051
0 3051 3172
0 3051 3298
0 3051 3430
0 3051 3569
0 3051 3709
0 3051 3836
0 3051 3943
0 3051 4033
0 3051 4095
0 3170 0
0 3170 0
0 3170 0
0 3170 0
0 3170 258
0 3170 489
0 3170 662
0 3170 815
0 3170 960
0 3170 1106
0 3170 1259
0 3170 1419
0 3170 1586
0 3170 1755
0 3170 1926
0 3170 2093
0 3170 2254
0 3170 2405
0 3170 2545
0 3170 2678
0 3170 2804
0 3170 2927
0 3170 3048
0 3170 3170
0 3170 3295
0 3170 3427
0 3170 3566
0 3170 3706
0 3170 3835
0 3170 3941
0 3170 4032
0 3170 4095
0 3293 0
0 3293 0
0 3293 0
0 3293 0
0 3293 207
0 3293 462
0 3293 644
0 3293 801
0 3293 949
0 3293 1096
0 3293 1249
0 3293 1410
0 3293 1577
0 3293 1748
0 3293 1919
0 3293 2087
0 3293 2248
0 3293 2400
0 3293 2541
0 3293 2674
0 3293 2801
0 3293 2924
0 3293 3045
0 3293 3167
0 3293 3293
0 3293 3424
0 3293 3564
0 3293 3704
0 3293 3833
0 3293 3940
0 3293 4031
0 3293 4095
0 3422 0
0 3422 0
0 3422 0
0 3422 0
0 3422 142
0 3422 432
0 3422 625
0 3422 786
0 3422 936
0 3422 1085
0 3422 1239
0 3422 1401
0 3422 1569
0 3422 1740
0 3422 1912
0 3422 2080
0 3422 2243
0 3422 2395
0 3422 2537
0 3422 2671
0 3422 2798
0 3422 2921
0 3422 3042
0 3422 3164
0 3422 3290
0 3422 3422
0 3422 3561
0 3422 3702
0 3422 3831
0 3422 3938
0 3422 4030
0 3422 4095
0 3558 0
0 3558 0
0 3558 0
0 3558 0
0 3558 72
0 3558 398
0 3558 604
0 3558 771
0 3558 923
0 3558 1073
0 3558 1228
0 3558 1391
0 3558 1559
0 3558 1732
0 3558 1904
0 3558 2073
0 3558 2237
0 3558 2390
0 3558 2533
0 3558 2667
0 3558 2794
0 3558 2918
0 3558 3039
0 3558 3162
0 3558 3287
0 3558 3419
0 3558 3558
0 3558 3699
0 3558 3829
0 3558 3936
0 3558 4028
0 3558 4095
0 3696 0
0 3696 0
0 3696 0
0 3696 0
0 3696 0
0 3696 358
0 3696 580
0 3696 753
0 3696 909
0 3696 1061
0 3696 1217
0 3696 1380
0 3696 1550
0 3696 1723
0 3696 1896
0 3696 2066
0 3696 2230
0 3696 2384
0 3696 2528
0 3696 2663
0 3696 2791
0 3696 2914
0 3696 3036
0 3696 3158
0 3696 3284
0 3696 3416
0 3696 3555
0 3696 3696
0 3696 3826
0 3696 3934
0 3696 4027
0 3696 4095
0 3824 0
0 3824 0
0 3824 0
0 3824 0
